X: 245
T: I'll Be a Good Boy
B: O'Neill's 245
N: "Moderate"
N: "Collected by J.O'Neill"
Z: 1997 by John Chambers <jc@trillian.mit.edu>
M: 3/4
L: 1/8
K:D
(Ad) \
| f2 (gf) (ed) | (c2 A2) (A>G) | (F2 D2) D>E | D4 (Ad) \
| (fg a2) (gf) | (ef g2) (fe) | (dc A2) A2 | A4 (de) |
|| fg a2 gf | ef g2 fe | d>c de fg | f4 e(f/e/) \
| (d2 A2) (A>G) | (F2 D2) (FG) | (A2 d2) (d{f}e) | Hd4 ||


